X:85
T:Quick March. JJo.085
S:J.Jones MS,1801,N.Shrops.
A:N Shropshire
Z:Neil Brookes 2006
M:2/4
L:1/8
Q:1/2=70
K:C
cc/d/ .e.c|dd/e/ .f.d|cc/d/ .e.c|d/c/B/A/ G/A/B/G/|\!
cc/d/ .e.c|dd/e/ .f.d|ec B/c/d/B/|c2c2::!
gggc’|aaac’|g/e/g/e/ g/e/g/e/|e2d2|!
gggc’|aaac’|gc e/d/c/B/|c2c2:|

